build/flags/Portugal.svg

<svg xmlns="http://www.w3.org/2000/svg" fill="none" viewBox="0 0 28 28" focusable="false"><defs><filter id="Portugal_svg__a"><feColorMatrix values="0 0 0 0 1 0 0 0 0 1 0 0 0 0 1 0 0 0 1 0"/></filter></defs><mask id="Portugal_svg__b" width="28" height="20" x="0" y="4" maskUnits="userSpaceOnUse"><g filter="url(#Portugal_svg__a)"><rect width="28" height="20" y="4" fill="#FFF" rx="3"/><rect width="28" height="20" y="4" stroke="#969696" stroke-opacity="0" stroke-width="0" rx="3"/></g></mask><path fill="none" d="M0 0H28V28H0z"/><rect width="28" height="20" y="4" fill="#FFF" rx="3"/><rect width="28" height="20" y="4" rx="3"/><g mask="url(#Portugal_svg__b)"><path fill="#FF2936" d="M0 4H28V24H0z"/><path d="M0 4H28V24H0z"/><path fill="#128415" fill-rule="evenodd" d="M0 24L10.6667 24L10.6667 4L0 4L0 24Z"/><path d="M10.6667 24L10.6667 4L0 4L0 24L10.6667 24Z"/><path fill="none" d="M10.6667 16.6667C12.1394 16.6667 13.3333 15.4728 13.3333 14C13.3333 12.5273 12.1394 11.3334 10.6667 11.3334C9.19391 11.3334 8 12.5273 8 14C8 15.4728 9.19391 16.6667 10.6667 16.6667Z"/><path fill="#FAF94F" fill-rule="evenodd" d="M14.5763 14.8514C14.6365 14.5742 14.6667 14.2904 14.6667 14C14.6667 13.7097 14.6365 13.4259 14.5763 13.1486C14.5241 12.9084 14.4492 12.6731 14.3518 12.4427C14.2547 12.2131 14.1385 11.9963 14.0033 11.7921C13.8564 11.5703 13.687 11.3635 13.4951 11.1716C13.3032 10.9797 13.0964 10.8103 12.8746 10.6634C12.6704 10.5282 12.4536 10.412 12.2241 10.3149C11.9936 10.2175 11.7583 10.1426 11.5181 10.0904C11.2408 10.0302 10.957 10 10.6667 10C10.3763 10 10.0925 10.0302 9.81526 10.0904C9.57502 10.1426 9.33969 10.2175 9.10928 10.3149C8.87977 10.412 8.66292 10.5282 8.45871 10.6634C8.23697 10.8103 8.03015 10.9797 7.83824 11.1716C7.64633 11.3635 7.47693 11.5704 7.33005 11.7921C7.19479 11.9963 7.07862 12.2132 6.98155 12.4427C6.8841 12.6731 6.80927 12.9084 6.75705 13.1486C6.69679 13.4259 6.66667 13.7097 6.66667 14C6.66667 14.2904 6.69679 14.5742 6.75705 14.8514C6.80926 15.0917 6.8841 15.327 6.98155 15.5574C7.07863 15.7869 7.1948 16.0038 7.33007 16.208C7.47695 16.4297 7.64634 16.6366 7.83824 16.8285C8.03014 17.0204 8.23695 17.1898 8.45868 17.3366C8.66289 17.4719 8.87976 17.5881 9.10928 17.6852C9.3397 17.7826 9.57504 17.8575 9.81529 17.9097C10.0925 17.9699 10.3763 18 10.6667 18C10.957 18 11.2408 17.9699 11.5181 17.9097C11.7583 17.8574 11.9936 17.7826 12.2241 17.6852C12.4536 17.5881 12.6704 17.4719 12.8747 17.3366C13.0964 17.1898 13.3032 17.0204 13.4951 16.8285C13.687 16.6366 13.8564 16.4298 14.0033 16.208C14.1385 16.0038 14.2547 15.7869 14.3518 15.5574C14.4492 15.327 14.5241 15.0917 14.5763 14.8514ZM13.3333 14C13.3333 15.4728 12.1394 16.6667 10.6667 16.6667C9.19391 16.6667 8 15.4728 8 14C8 12.5273 9.19391 11.3334 10.6667 11.3334C12.1394 11.3334 13.3333 12.5273 13.3333 14Z"/><path fill="#FFF" fill-rule="evenodd" d="M9.33331 12.3333C9.33331 12.1492 9.48255 12 9.66665 12L11.6666 12C11.8507 12 12 12.1492 12 12.3333L12 14.6667C12 15.403 11.403 16 10.6666 16L10.6666 16C9.93027 16 9.33331 15.403 9.33331 14.6667L9.33331 12.3333Z"/><path d="M11.6666 12C11.8507 12 12 12.1492 12 12.3333L12 14.6667C12 15.403 11.403 16 10.6666 16C9.93027 16 9.33331 15.403 9.33331 14.6667L9.33331 12.3333C9.33331 12.1492 9.48255 12 9.66665 12L11.6666 12Z"/><path fill="#1D50B5" fill-rule="evenodd" d="M10.6667 14.6666C11.0349 14.6666 11.3333 13.7015 11.3333 13.3333C11.3333 12.9651 11.0349 12.6666 10.6667 12.6666C10.2985 12.6666 10 12.9651 10 13.3333C10 13.7015 10.2985 14.6666 10.6667 14.6666Z"/><path d="M11.3333 13.3333C11.3333 12.9651 11.0349 12.6666 10.6667 12.6666C10.2985 12.6666 10 12.9651 10 13.3333C10 13.7015 10.2985 14.6666 10.6667 14.6666C11.0349 14.6666 11.3333 13.7015 11.3333 13.3333Z"/></g></svg>

<svg xmlns="http://www.w3.org/2000/svg" fill="none" viewBox="0 0 28 28" focusable="false"><path fill="none" d="M0 0h28v28H0z"/><rect width="28" height="20" y="4" fill="#FFF" rx="3"/><rect width="28" height="20" y="4" rx="3"/><mask id="Portugal_svg__a" width="28" height="20" x="0" y="4" mask-type="alpha" maskUnits="userSpaceOnUse"><rect width="28" height="20" y="4" fill="#FFF" rx="3"/><rect width="28" height="20" y="4" stroke="#979797" stroke-opacity="0" stroke-width="0" rx="3"/></mask><g mask="url(#Portugal_svg__a)"><path fill="#FF2936" d="M0 4h28v20H0z"/><path d="M0 4h28v20H0z"/></g><g mask="url(#Portugal_svg__a)"><path fill="#128415" fill-rule="evenodd" d="M0 24h10.66V4H0z"/><path d="M10.66 24V4H0v20z"/></g><g mask="url(#Portugal_svg__a)"><path fill="none" d="M10.66 16.66c1.47 0 2.67-1.19 2.67-2.66 0-1.48-1.2-2.67-2.67-2.67S8 12.52 8 14c0 1.47 1.19 2.66 2.66 2.66"/><path fill="#FAF94F" fill-rule="evenodd" d="M14.57 14.85q.09-.42.09-.85 0-.44-.09-.86-.08-.36-.22-.7-.15-.35-.35-.65-.22-.34-.51-.62-.29-.29-.62-.51-.31-.2-.65-.35-.35-.15-.71-.22-.41-.09-.85-.09-.43 0-.85.09-.36.07-.71.22-.34.15-.65.35-.33.22-.62.51-.28.28-.5.62-.21.3-.35.65-.15.34-.23.7-.09.42-.09.86 0 .43.09.85.08.36.23.7.14.35.35.65.22.34.5.62.29.29.62.51.31.2.65.35.35.15.71.22.42.1.85.1.44 0 .85-.1.36-.07.71-.22.34-.15.65-.35.33-.22.62-.51.29-.28.51-.62.2-.3.35-.65.14-.34.22-.7M13.33 14c0 1.47-1.2 2.66-2.67 2.66S8 15.47 8 14c0-1.48 1.19-2.67 2.66-2.67A2.67 2.67 0 0 1 13.33 14"/></g><g mask="url(#Portugal_svg__a)"><path fill="#FFF" fill-rule="evenodd" d="M9.33 12.33c0-.19.15-.33.33-.33h2c.19 0 .34.14.34.33v2.33c0 .74-.6 1.34-1.34 1.34-.73 0-1.33-.6-1.33-1.34z"/><path d="M11.66 12c.19 0 .34.14.34.33v2.33c0 .74-.6 1.34-1.34 1.34-.73 0-1.33-.6-1.33-1.34v-2.33c0-.19.15-.33.33-.33z"/></g><g mask="url(#Portugal_svg__a)"><path fill="#1D50B5" fill-rule="evenodd" d="M10.66 14.66c.37 0 .67-.96.67-1.33s-.3-.67-.67-.67-.66.3-.66.67.29 1.33.66 1.33"/><path d="M11.33 13.33c0-.37-.3-.67-.67-.67s-.66.3-.66.67.29 1.33.66 1.33.67-.96.67-1.33"/></g></svg>
